web/assets/images/product/dairy.svg

<svg xmlns="http://www.w3.org/2000/svg" viewBox="0 0 19 25"><path d="M18.2 9.2c0-.1-.1-.1-.1-.2l-3.9-5V1.6c0-.3-.2-.6-.6-.6H5c-.4 0-.6.3-.6.6V4L.9 9c0 .1-.1.1-.1.2V24h17.5l-.1-14.8zM2 12.9h8v7.2H2v-7.2zm8-.6H2v-1.9h8v1.9zm3.7-7l3 3.9h-5.4l2.4-3.9zm-8.2-.7c0-.1 0-.1 0 0h1.1c.2 0 .3-.1.3-.3 0-.2-.1-.3-.3-.3h-1V2.2H13v1.7H8.8c-.2 0-.3.1-.3.3 0 .2.1.3.3.3h4L10 9c0 .1-.1.1-.1.2H2.2l3.3-4.6zM2 20.8h8v2H2v-2zm9.2 2V10.4H17v2h-4c-.2 0-.3.1-.3.3s.1.3.3.3h4v7.3h-4c-.2 0-.3.1-.3.3s.1.3.3.3h4V23h-5.8z"/></svg>

<?xml version="1.0" encoding="utf-8"?>
<svg version="1.1" id="Capa_1" xmlns="http://www.w3.org/2000/svg" xmlns:xlink="http://www.w3.org/1999/xlink" x="0px" y="0px"
	 viewBox="0 0 19 25" style="enable-background:new 0 0 19 25;" xml:space="preserve">
<path d="M18.2,9.2c0-0.1-0.1-0.1-0.1-0.2l-3.9-5c0,0,0-0.1,0-0.1V1.6C14.2,1.3,14,1,13.6,1H5C4.6,1,4.4,1.3,4.4,1.6v2.3
	c0,0,0,0.1,0,0.1L0.9,9c0,0.1-0.1,0.1-0.1,0.2h0V24h17.5L18.2,9.2L18.2,9.2z M2,12.9h8v7.2c0,0,0,0,0,0H2V12.9z M10,12.3H2v-1.9h8
	V12.3z M13.7,5.3l3,3.9h-5.4L13.7,5.3z M5.5,4.6C5.5,4.5,5.5,4.5,5.5,4.6l1.1,0c0.2,0,0.3-0.1,0.3-0.3c0-0.2-0.1-0.3-0.3-0.3h-1
	c0,0,0,0,0,0V2.2H13v1.7c0,0,0,0,0,0H8.8C8.6,3.9,8.5,4,8.5,4.2c0,0.2,0.1,0.3,0.3,0.3h4L10,9c0,0.1-0.1,0.1-0.1,0.2H2.2L5.5,4.6z
	 M2,20.8h8c0,0,0,0,0,0v2H2V20.8z M11.2,22.8V10.4H17v2c0,0-0.1,0-0.2,0H13c-0.2,0-0.3,0.1-0.3,0.3s0.1,0.3,0.3,0.3h3.8
	c0.1,0,0.1,0,0.2,0v7.3c0,0-0.1,0-0.2,0H13c-0.2,0-0.3,0.1-0.3,0.3s0.1,0.3,0.3,0.3h3.8c0.1,0,0.1,0,0.2,0v2.1H11.2z"/>
</svg>
